X: 1317
T: Kırklar Dağının Düzü
C: Hafız Celal Sevimli
O: Turkey
F: http://compmusic.upf.edu/node/140
N: gerdaniye--turku--kapali_curcuna--kirklar_daginin--diyarbakir
N: makam= gerdaniye
N: form= turku
N: usul= kapali_curcuna = 10/8
M: 10/8
L: 1/16
K: C _2/4B ^3/4f  
Q: 1/4=240
%%MIDI tuningsystem comma53
e4 e2e4=f2 e2d4c2  | e2d2 c6d4e6  | d2c2 BAB2 z2c4d2 {e}d4  | 
w:  ARANAĞME  |   |   | 
c2B2 A6B4c2 B2A2  | G4 c2c2 B2c2 d2Bc B2c2  | \
w:   |   | 
B2A2 A6A4A2 c2d2  | 
w:   | 
e4 e2e4=f2 e2d4c2  | e2d2 c6d4e6  | d2c2 BAB2 z2c4d2 {e}d4  | 
w:  ARANAĞME  |   |   | 
c2B2 A6B4c2 B2A2  | G4 c2c2 B2c2 d2Bc B2c2  | \
w:   |   | 
B2A2 A6A4d2 e2f2  | 
w:   | 
g4 f2g4g2 f2g6  | g2f2 e6f2 e2g2 f2e2  | \
w:  *  Kırk lar  da *  ğı  |  nın  *  dü zi    | 
d4 g2g4g2 e2e4d2  | 
w:  *  Ka ran lık  *  bas  | 
d4 c4 c2d2 {e}c2e2 d4  | g4 f2g4g2 f2g6  | \
w:  tı  bi *  zi    |  *  Kırk lar  da *  ğı  | 
g2f2 e6f2 e2g2 f2e2  | 
w:  nın  *  dü zi    | 
d4 g2g4g2 e2e4d2  | d4 c4 c2d2 {e}c2e2 d4  | \
w:  *  Ka ran lık  *  bas  |  tı  bi *  zi    | 
e4 e2e4=f2 e2d4c2  | 
w:  SAZ Kör_ o la *  san   | 
e2d2 c6d4e6  | d2c2 BAB2 z2c4d2 {e}d4  | \
w:  za *  lım  su zan    |  Za *  lım  *  *  su zan   | 
c2B2 A6B4c2 B2A2  | 
w:  za *  lım  su zan    | 
G4 c2c2 B2c2 d2Bc B2c2  | B2A2 A6A4A2 c2d2  | \
w:  *  Zi ya *  ret  *  çarp  |  tı  *  bi zi   SAZ  | 
e4 e2e4=f2 e2d4c2  | 
w:  SAZ Kör_ o la *  san   | 
e2d2 c6d4e6  | d2c2 BAB2 z2c4d2 {e}d4  | \
w:  za *  lım  su zan    |  Za *  lım  *  *  su zan   | 
c2B2 A6B4c2 B2A2  | 
w:  za *  lım  su zan    | 
G4 c2c2 B2c2 d2Bc B2c2  | B2A2 A6A4A2 c2d2  | \
w:  *  Zi ya *  ret  *  çarp  |  tı  *  bi zi   SAZ  | 
e4 e2e4=f2 e2d4c2  | 
w:  ARANAĞME  | 
e2d2 c6d4e6  | d2c2 BAB2 z2c4d2 {e}d4  | \
w:   |   | 
c2B2 A6B4c2 B2A2  | 
w:   | 
G4 c2c2 B2c2 d2Bc B2c2  | B2A2 A6A4A2 c2d2  | \
w:   |   | 
e4 e2e4=f2 e2d4c2  | 
w:  ARANAĞME  | 
e2d2 c6d4e6  | d2c2 BAB2 z2c4d2 {e}d4  | \
w:   |   | 
c2B2 A6B4c2 B2A2  | 
w:   | 
G4 c2c2 B2c2 d2Bc B2c2  | B2A2 A6A4d2 e2f2  | \
w:   |   | 
g4 f2g4g2 f2g6  | 
w:  *  Kırk lar  da *  ğı  | 
g2f2 e6f2 e2g2 f2e2  | d4 g2g4g2 e2e4d2  | \
w:  nın  *  dü zi    |  *  Ka ran lık  *  bas  | 
d4 c4 c2d2 {e}c2e2 d4  | 
w:  tı  bi *  zi    | 
g4 f2g4g2 f2g6  | g2f2 e6f2 e2g2 f2e2  | \
w:  *  Kırk lar  da *  ğı  |  nın  *  dü zi    | 
d4 g2g4g2 e2e4d2  | 
w:  *  Ka ran lık  *  bas  | 
d4 c4 c2d2 {e}c2e2 d4  | e4 e2e4=f2 e2d4c2  | \
w:  tı  bi *  zi    |  SAZ Kör_ o la *  san   | 
e2d2 c6d4e6  | d2c2 BAB2 z2c4d2 {e}d4  | 
w:  za *  lım  su zan    |  Za *  lım  *  *  su zan   | 
c2B2 A6B4c2 B2A2  | G4 c2c2 B2c2 d2Bc B2c2  | \
w:  za *  lım  su zan    |  *  Zi ya *  ret  *  çarp  | 
B2A2 A6A4|
w:  tı  *  bi zi    | 


